svgs/zoho_one.svg

<svg width="192" height="192" viewBox="0 0 192 192" fill="none" xmlns="http://www.w3.org/2000/svg"><path d="M92.968 21.818C93.8923 21.2823 94.9417 21.0001 96.01 21.0001C97.0783 21.0001 98.1277 21.2823 99.052 21.818L158.472 56.271C159.393 56.8054 160.158 57.5724 160.689 58.4951C161.22 59.4179 161.5 60.4641 161.5 61.529V130.472C161.5 131.537 161.22 132.583 160.689 133.505C160.158 134.428 159.393 135.195 158.472 135.729L99.053 170.182C98.1283 170.717 97.0788 170.999 96.0105 170.999C94.9422 170.999 93.8927 170.717 92.968 170.182L33.528 135.728C32.6066 135.194 31.8419 134.427 31.3104 133.505C30.7789 132.582 30.4995 131.536 30.5 130.471V61.53C30.5001 60.4652 30.7798 59.4191 31.3112 58.4963C31.8426 57.5735 32.607 56.8065 33.528 56.272L92.968 21.818Z" stroke="black" stroke-width="10" stroke-miterlimit="6" stroke-linejoin="round"/><path d="M31.5129 58.5L96.3219 96M96.3219 96L161.13 58.5M96.3219 96V171M93.1369 66.542C94.0945 65.952 95.1972 65.6396 96.3219 65.6396C97.4467 65.6396 98.5493 65.952 99.5069 66.542L119.759 79.017C120.643 79.5614 121.373 80.3233 121.879 81.2299C122.385 82.1365 122.651 83.1577 122.65 84.196V107.57C122.65 108.668 122.353 109.745 121.791 110.688C121.228 111.631 120.421 112.404 119.455 112.925L99.2019 123.839C98.3168 124.316 97.327 124.566 96.3214 124.566C95.3159 124.566 94.3261 124.316 93.4409 123.839L73.1879 112.925C72.2216 112.404 71.4143 111.631 70.8518 110.688C70.2893 109.745 69.9925 108.668 69.9929 107.57V84.196C69.9927 83.1576 70.2583 82.1365 70.7643 81.2298C71.2704 80.3231 72.0001 79.561 72.8839 79.016L93.1369 66.542Z" stroke="black" stroke-width="10" stroke-miterlimit="6" stroke-linecap="round" stroke-linejoin="round"/></svg>

<svg xmlns="http://www.w3.org/2000/svg" width="192" height="192" fill="none" viewBox="0 0 192 192"><path stroke="#000" stroke-linejoin="round" stroke-miterlimit="6" stroke-width="10" d="M92.968 21.818a6.067 6.067 0 0 1 6.084 0l59.42 34.453a6.076 6.076 0 0 1 3.028 5.258v68.943a6.078 6.078 0 0 1-3.028 5.257l-59.419 34.453a6.076 6.076 0 0 1-6.085 0l-59.44-34.454a6.078 6.078 0 0 1-3.028-5.257V61.53a6.08 6.08 0 0 1 3.028-5.258z"/><path stroke="#000" stroke-linecap="round" stroke-linejoin="round" stroke-miterlimit="6" stroke-width="10" d="M31.513 58.5 96.322 96m0 0 64.808-37.5M96.322 96v75M93.137 66.542a6.072 6.072 0 0 1 6.37 0l20.252 12.475a6.078 6.078 0 0 1 2.891 5.179v23.374a6.09 6.09 0 0 1-3.195 5.355l-20.253 10.914a6.072 6.072 0 0 1-5.761 0l-20.253-10.914a6.08 6.08 0 0 1-3.195-5.355V84.196a6.084 6.084 0 0 1 2.89-5.18z"/></svg>
